dist/img/card/discount15@768.svg

<svg width="50" height="50" viewBox="0 0 50 50" fill="none" xmlns="http://www.w3.org/2000/svg">
<circle cx="25" cy="25" r="25" fill="#FFBD13"/>
<path d="M7.912 25.344H12.056V26.992H7.912V25.344ZM21.2488 29.52V31H14.8488V29.52H17.1927V22.776C17.1927 22.5093 17.2008 22.2347 17.2168 21.952L15.5528 23.344C15.4568 23.4187 15.3608 23.4667 15.2648 23.488C15.1741 23.504 15.0861 23.504 15.0008 23.488C14.9208 23.472 14.8488 23.4453 14.7848 23.408C14.7208 23.3653 14.6728 23.32 14.6408 23.272L14.0168 22.416L17.5448 19.416H19.1688V29.52H21.2488ZM25.498 23.632C25.754 23.5787 25.9993 23.5413 26.234 23.52C26.4687 23.4933 26.6953 23.48 26.914 23.48C27.522 23.48 28.058 23.5707 28.522 23.752C28.986 23.9333 29.3753 24.184 29.69 24.504C30.0047 24.824 30.242 25.2 30.402 25.632C30.562 26.0587 30.642 26.52 30.642 27.016C30.642 27.6293 30.5327 28.1893 30.314 28.696C30.1007 29.2027 29.802 29.6373 29.418 30C29.034 30.3573 28.578 30.6347 28.05 30.832C27.5273 31.0293 26.9567 31.128 26.338 31.128C25.9753 31.128 25.6313 31.0907 25.306 31.016C24.9807 30.9413 24.674 30.8427 24.386 30.72C24.1033 30.592 23.8393 30.448 23.594 30.288C23.354 30.1227 23.138 29.9493 22.946 29.768L23.554 28.928C23.682 28.7467 23.85 28.656 24.058 28.656C24.1913 28.656 24.3273 28.6987 24.466 28.784C24.6047 28.8693 24.762 28.9627 24.938 29.064C25.1193 29.1653 25.33 29.2587 25.57 29.344C25.8153 29.4293 26.1087 29.472 26.45 29.472C26.8127 29.472 27.1327 29.4133 27.41 29.296C27.6873 29.1787 27.9167 29.016 28.098 28.808C28.2847 28.5947 28.4233 28.344 28.514 28.056C28.61 27.7627 28.658 27.4453 28.658 27.104C28.658 26.4747 28.474 25.984 28.106 25.632C27.7433 25.2747 27.2047 25.096 26.49 25.096C25.9407 25.096 25.378 25.1973 24.802 25.4L23.57 25.048L24.53 19.432H30.242V20.272C30.242 20.5547 30.154 20.784 29.978 20.96C29.802 21.136 29.5033 21.224 29.082 21.224H25.906L25.498 23.632ZM37.4913 22.232C37.4913 22.6693 37.4166 23.064 37.2673 23.416C37.1233 23.768 36.9286 24.0693 36.6833 24.32C36.4379 24.5653 36.1526 24.7547 35.8273 24.888C35.5019 25.0213 35.1633 25.088 34.8113 25.088C34.4273 25.088 34.0726 25.0213 33.7473 24.888C33.4219 24.7547 33.1393 24.5653 32.8993 24.32C32.6646 24.0693 32.4806 23.768 32.3473 23.416C32.2139 23.064 32.1473 22.6693 32.1473 22.232C32.1473 21.784 32.2139 21.3787 32.3473 21.016C32.4806 20.6533 32.6646 20.3467 32.8993 20.096C33.1393 19.8453 33.4219 19.6533 33.7473 19.52C34.0726 19.3813 34.4273 19.312 34.8113 19.312C35.1953 19.312 35.5499 19.3813 35.8753 19.52C36.2059 19.6533 36.4913 19.8453 36.7313 20.096C36.9713 20.3467 37.1579 20.6533 37.2913 21.016C37.4246 21.3787 37.4913 21.784 37.4913 22.232ZM35.9713 22.232C35.9713 21.9227 35.9393 21.664 35.8753 21.456C35.8166 21.248 35.7339 21.08 35.6273 20.952C35.5259 20.824 35.4033 20.7333 35.2593 20.68C35.1206 20.6213 34.9713 20.592 34.8113 20.592C34.6513 20.592 34.5019 20.6213 34.3633 20.68C34.2246 20.7333 34.1046 20.824 34.0033 20.952C33.9073 21.08 33.8299 21.248 33.7713 21.456C33.7126 21.664 33.6833 21.9227 33.6833 22.232C33.6833 22.5307 33.7126 22.7813 33.7713 22.984C33.8299 23.1813 33.9073 23.3413 34.0033 23.464C34.1046 23.5867 34.2246 23.6747 34.3633 23.728C34.5019 23.7813 34.6513 23.808 34.8113 23.808C34.9713 23.808 35.1206 23.7813 35.2593 23.728C35.4033 23.6747 35.5259 23.5867 35.6273 23.464C35.7339 23.3413 35.8166 23.1813 35.8753 22.984C35.9393 22.7813 35.9713 22.5307 35.9713 22.232ZM41.3393 19.744C41.4086 19.664 41.4886 19.592 41.5793 19.528C41.6753 19.464 41.8086 19.432 41.9793 19.432H43.4193L34.8273 30.704C34.7579 30.7893 34.6753 30.8613 34.5793 30.92C34.4833 30.9733 34.3659 31 34.2273 31H32.7553L41.3393 19.744ZM44.0273 28.28C44.0273 28.7173 43.9526 29.112 43.8033 29.464C43.6593 29.816 43.4646 30.1173 43.2193 30.368C42.9739 30.6133 42.6886 30.8053 42.3633 30.944C42.0379 31.0773 41.6993 31.144 41.3473 31.144C40.9633 31.144 40.6086 31.0773 40.2833 30.944C39.9579 30.8053 39.6753 30.6133 39.4353 30.368C39.2006 30.1173 39.0166 29.816 38.8833 29.464C38.7499 29.112 38.6833 28.7173 38.6833 28.28C38.6833 27.832 38.7499 27.4267 38.8833 27.064C39.0166 26.7013 39.2006 26.3947 39.4353 26.144C39.6753 25.8933 39.9579 25.7013 40.2833 25.568C40.6086 25.4293 40.9633 25.36 41.3473 25.36C41.7313 25.36 42.0859 25.4293 42.4113 25.568C42.7419 25.7013 43.0246 25.8933 43.2593 26.144C43.4993 26.3947 43.6859 26.7013 43.8193 27.064C43.9579 27.4267 44.0273 27.832 44.0273 28.28ZM42.4993 28.28C42.4993 27.9707 42.4699 27.712 42.4113 27.504C42.3526 27.296 42.2699 27.128 42.1633 27C42.0619 26.872 41.9393 26.7813 41.7953 26.728C41.6566 26.6693 41.5073 26.64 41.3473 26.64C41.1873 26.64 41.0379 26.6693 40.8993 26.728C40.7606 26.7813 40.6406 26.872 40.5393 27C40.4379 27.128 40.3579 27.296 40.2993 27.504C40.2459 27.712 40.2193 27.9707 40.2193 28.28C40.2193 28.5787 40.2459 28.8293 40.2993 29.032C40.3579 29.2347 40.4379 29.3973 40.5393 29.52C40.6406 29.6427 40.7606 29.7307 40.8993 29.784C41.0379 29.8373 41.1873 29.864 41.3473 29.864C41.5073 29.864 41.6566 29.8373 41.7953 29.784C41.9393 29.7307 42.0619 29.6427 42.1633 29.52C42.2699 29.3973 42.3526 29.2347 42.4113 29.032C42.4699 28.8293 42.4993 28.5787 42.4993 28.28Z" fill="white"/>
</svg>

<svg width="50" height="50" fill="none" xmlns="http://www.w3.org/2000/svg"><circle cx="25" cy="25" r="25" fill="#FFBD13"/><path d="M7.912 25.344h4.144v1.648H7.912v-1.648Zm13.337 4.176V31h-6.4v-1.48h2.344v-6.744c0-.267.008-.541.024-.824l-1.664 1.392a.73.73 0 0 1-.288.144.697.697 0 0 1-.48-.08.508.508 0 0 1-.144-.136l-.624-.856 3.528-3h1.624V29.52h2.08Zm4.249-5.888c.256-.053.501-.09.736-.112.235-.027.461-.04.68-.04.608 0 1.144.09 1.608.272.464.181.853.432 1.168.752.315.32.552.696.712 1.128.16.427.24.888.24 1.384 0 .613-.11 1.173-.328 1.68A3.796 3.796 0 0 1 29.418 30c-.384.357-.84.635-1.368.832a4.81 4.81 0 0 1-1.712.296 4.6 4.6 0 0 1-1.032-.112 5.46 5.46 0 0 1-.92-.296 5.905 5.905 0 0 1-.792-.432 5.416 5.416 0 0 1-.648-.52l.608-.84a.59.59 0 0 1 .504-.272c.133 0 .27.043.408.128.139.085.296.179.472.28.181.101.392.195.632.28.245.085.539.128.88.128.363 0 .683-.059.96-.176.277-.117.507-.28.688-.488a2.07 2.07 0 0 0 .416-.752c.096-.293.144-.61.144-.952 0-.63-.184-1.12-.552-1.472-.363-.357-.901-.536-1.616-.536-.55 0-1.112.101-1.688.304l-1.232-.352.96-5.616h5.712v.84c0 .283-.088.512-.264.688-.176.176-.475.264-.896.264h-3.176l-.408 2.408Zm11.993-1.4c0 .437-.074.832-.224 1.184a2.782 2.782 0 0 1-.584.904 2.655 2.655 0 0 1-1.872.768 2.78 2.78 0 0 1-1.064-.2 2.496 2.496 0 0 1-.848-.568 2.709 2.709 0 0 1-.552-.904 3.32 3.32 0 0 1-.2-1.184c0-.448.067-.853.2-1.216.134-.363.318-.67.552-.92.24-.25.523-.443.848-.576.326-.139.68-.208 1.064-.208s.739.07 1.064.208c.33.133.616.325.856.576.24.25.427.557.56.92.134.363.2.768.2 1.216Zm-1.52 0c0-.31-.032-.568-.096-.776a1.352 1.352 0 0 0-.248-.504.833.833 0 0 0-.368-.272 1.137 1.137 0 0 0-.448-.088c-.16 0-.31.03-.448.088a.841.841 0 0 0-.36.272 1.526 1.526 0 0 0-.232.504 2.905 2.905 0 0 0-.088.776c0 .299.03.55.088.752.059.197.136.357.232.48.102.123.222.21.36.264.139.053.288.08.448.08.16 0 .31-.027.448-.08a.857.857 0 0 0 .368-.264c.107-.123.19-.283.248-.48.064-.203.096-.453.096-.752Zm5.368-2.488c.07-.08.15-.152.24-.216.096-.064.23-.096.4-.096h1.44l-8.592 11.272a.968.968 0 0 1-.248.216.716.716 0 0 1-.352.08h-1.472l8.584-11.256Zm2.688 8.536c0 .437-.074.832-.224 1.184a2.782 2.782 0 0 1-.584.904c-.245.245-.53.437-.856.576-.325.133-.664.2-1.016.2a2.78 2.78 0 0 1-1.064-.2 2.598 2.598 0 0 1-.848-.576 2.709 2.709 0 0 1-.552-.904 3.32 3.32 0 0 1-.2-1.184c0-.448.067-.853.2-1.216.134-.363.318-.67.552-.92.24-.25.523-.443.848-.576.326-.139.68-.208 1.064-.208s.739.07 1.064.208c.33.133.614.325.848.576.24.25.427.557.56.92.139.363.208.768.208 1.216Zm-1.528 0c0-.31-.03-.568-.088-.776a1.352 1.352 0 0 0-.248-.504.833.833 0 0 0-.368-.272 1.137 1.137 0 0 0-.448-.088c-.16 0-.31.03-.448.088a.841.841 0 0 0-.36.272 1.429 1.429 0 0 0-.24.504 3.18 3.18 0 0 0-.08.776c0 .299.027.55.08.752.059.203.139.365.24.488.102.123.222.21.36.264.139.053.288.08.448.08.16 0 .31-.027.448-.08a.857.857 0 0 0 .368-.264c.107-.123.19-.285.248-.488.059-.203.088-.453.088-.752Z" fill="#fff"/></svg>
